X: 6613
T: Cavalheiro Toni
R: reel
M: 4/4
K: Gmajor
BdGA BdGA|BdGA ~B3c|BdGA BdGB|AGFA ~G3A|
BdGA BdGA|BdGA ~B3c|BdGA BdGB|AGFA ~G3d|
~e3f ~g2af|gedB ~d3A|BdGA BdGB|AGFA ~G3d|
~e3f ~g2af|gedB ~d3A|BdGA BdGB|AGFA ~G3c:|

